assets/Cat with tears of joy/Flat/cat_with_tears_of_joy_flat.svg

<svg width="32" height="32" viewBox="0 0 32 32" fill="none" xmlns="http://www.w3.org/2000/svg">
<path d="M4 25.942C4 28.1739 5.76327 30 7.91837 30H24.0816C26.2367 30 28 28.0725 28 25.8406V6.4297C28 5.1297 26.4099 4.5297 25.5155 5.4297L20.9736 10H11.1617L6.5 5.4297C5.6 4.5297 4 5.1297 4 6.4297V25.942Z" fill="#FFB02E"/>
<path d="M9.00005 10.9265L6.20005 13.5265C5.70005 14.0265 4.80005 13.6265 4.80005 12.9265V7.72648C4.80005 7.12648 5.70005 6.72648 6.20005 7.22648L9.00005 9.82648C9.30005 10.1265 9.30005 10.6265 9.00005 10.9265Z" fill="#FF822D"/>
<path d="M23.05 10.9265L25.85 13.5265C26.35 14.0265 27.25 13.6265 27.25 12.9265V7.72648C27.25 7.12648 26.35 6.72648 25.85 7.22648L23.05 9.82648C22.75 10.1265 22.75 10.6265 23.05 10.9265Z" fill="#FF822D"/>
<path d="M17.0429 16H14.9571C14.5117 16 14.2886 16.5386 14.6036 16.8536L15.6465 17.8964C15.8417 18.0917 16.1583 18.0917 16.3536 17.8964L17.3965 16.8536C17.7114 16.5386 17.4884 16 17.0429 16Z" fill="#F70A8D"/>
<path d="M4.72372 21.0528C4.47673 20.9293 4.17639 21.0294 4.0529 21.2764C3.9294 21.5234 4.02951 21.8237 4.2765 21.9472L6.2765 22.9472C6.52349 23.0707 6.82383 22.9706 6.94732 22.7236C7.07082 22.4766 6.97071 22.1763 6.72372 22.0528L4.72372 21.0528Z" fill="#FF6723"/>
<path d="M2.72372 26.9472C2.47673 27.0707 2.17639 26.9706 2.0529 26.7236C1.9294 26.4766 2.02951 26.1763 2.2765 26.0528L6.2765 24.0528C6.52349 23.9293 6.82383 24.0294 6.94732 24.2764C7.07082 24.5234 6.97071 24.8237 6.72372 24.9472L2.72372 26.9472Z" fill="#FF6723"/>
<path d="M27.9473 21.2764C27.8238 21.0294 27.5235 20.9293 27.2765 21.0528L25.2765 22.0528C25.0295 22.1763 24.9294 22.4766 25.0529 22.7236C25.1764 22.9706 25.4767 23.0707 25.7237 22.9472L27.7237 21.9472C27.9707 21.8237 28.0708 21.5234 27.9473 21.2764Z" fill="#FF6723"/>
<path d="M29.2765 26.9472C29.5235 27.0707 29.8238 26.9706 29.9473 26.7236C30.0708 26.4766 29.9707 26.1763 29.7237 26.0528L25.7237 24.0528C25.4767 23.9293 25.1764 24.0294 25.0529 24.2764C24.9294 24.5234 25.0295 24.8237 25.2765 24.9472L29.2765 26.9472Z" fill="#FF6723"/>
<path d="M15.9999 19.106C15.4625 19.6449 14.5434 20 13.4999 20C12.4681 20 11.5579 19.6527 11.0181 19.1239C11.1384 19.8481 11.9461 23.5 15.9999 23.5C20.0538 23.5 20.8615 19.8481 20.9818 19.1239C20.4419 19.6527 19.5317 20 18.4999 20C17.4564 20 16.5374 19.6449 15.9999 19.106Z" fill="#BB1D80"/>
<path d="M11.5 14C10.5701 14 9.90878 14.3841 9.64645 14.6464C9.45118 14.8417 9.45118 15.1583 9.64645 15.3536C9.84171 15.5488 10.1583 15.5488 10.3536 15.3536C10.4246 15.2826 10.8299 15 11.5 15C12.1701 15 12.5754 15.2826 12.6464 15.3536C12.8417 15.5488 13.1583 15.5488 13.3536 15.3536C13.5488 15.1583 13.5488 14.8417 13.3536 14.6464C13.0912 14.3841 12.4299 14 11.5 14Z" fill="#402A32"/>
<path d="M20.5 14C19.5701 14 18.9088 14.3841 18.6464 14.6464C18.4512 14.8417 18.4512 15.1583 18.6464 15.3536C18.8417 15.5488 19.1583 15.5488 19.3536 15.3536C19.4246 15.2826 19.8299 15 20.5 15C21.1701 15 21.5754 15.2826 21.6464 15.3536C21.8417 15.5488 22.1583 15.5488 22.3536 15.3536C22.5488 15.1583 22.5488 14.8417 22.3536 14.6464C22.0912 14.3841 21.4299 14 20.5 14Z" fill="#402A32"/>
<path d="M6.25002 21.75L8.75002 19.25C9.71652 18.2835 9.71652 16.7165 8.75002 15.75C7.78352 14.7835 6.21652 14.7835 5.25002 15.75L2.75002 18.25C1.78352 19.2165 1.78352 20.7835 2.75002 21.75C3.71652 22.7165 5.28352 22.7165 6.25002 21.75Z" fill="#3F5FFF"/>
<path d="M25.75 21.75L23.25 19.25C22.2835 18.2835 22.2835 16.7165 23.25 15.75C24.2165 14.7835 25.7835 14.7835 26.75 15.75L29.25 18.25C30.2165 19.2165 30.2165 20.7835 29.25 21.75C28.2835 22.7165 26.7165 22.7165 25.75 21.75Z" fill="#3F5FFF"/>
</svg>

<svg xmlns="http://www.w3.org/2000/svg" width="32" height="32" fill="none"><path fill="#FFB02E" d="M4 25.942C4 28.174 5.763 30 7.918 30h16.164C26.237 30 28 28.073 28 25.84V6.43c0-1.3-1.59-1.9-2.485-1L20.974 10h-9.812L6.5 5.43c-.9-.9-2.5-.3-2.5 1v19.512Z"/><path fill="#FF822D" d="m9 10.927-2.8 2.6c-.5.5-1.4.1-1.4-.6v-5.2c0-.6.9-1 1.4-.5l2.8 2.6c.3.3.3.8 0 1.1ZM23.05 10.927l2.8 2.6c.5.5 1.4.1 1.4-.6v-5.2c0-.6-.9-1-1.4-.5l-2.8 2.6c-.3.3-.3.8 0 1.1Z"/><path fill="#F70A8D" d="M17.043 16h-2.086a.5.5 0 0 0-.353.854l1.043 1.042a.5.5 0 0 0 .707 0l1.043-1.042a.5.5 0 0 0-.354-.854Z"/><path fill="#FF6723" d="M4.724 21.053a.5.5 0 1 0-.447.894l2 1a.5.5 0 1 0 .447-.894l-2-1ZM2.724 26.947a.5.5 0 1 1-.448-.894l4-2a.5.5 0 1 1 .448.894l-4 2ZM27.947 21.276a.5.5 0 0 0-.67-.223l-2 1a.5.5 0 1 0 .447.894l2-1a.5.5 0 0 0 .223-.67ZM29.276 26.947a.5.5 0 1 0 .448-.894l-4-2a.5.5 0 1 0-.448.894l4 2Z"/><path fill="#BB1D80" d="M16 19.106c-.537.539-1.457.894-2.5.894-1.032 0-1.942-.347-2.482-.876.12.724.928 4.376 4.982 4.376s4.861-3.652 4.982-4.376c-.54.529-1.45.876-2.482.876-1.044 0-1.963-.355-2.5-.894Z"/><path fill="#402A32" d="M11.5 14c-.93 0-1.591.384-1.854.646a.5.5 0 0 0 .708.708c.07-.071.476-.354 1.146-.354.67 0 1.075.283 1.146.354a.5.5 0 0 0 .708-.708C13.09 14.384 12.43 14 11.5 14ZM20.5 14c-.93 0-1.591.384-1.854.646a.5.5 0 0 0 .708.708c.07-.071.476-.354 1.146-.354.67 0 1.075.283 1.146.354a.5.5 0 0 0 .708-.708C22.09 14.384 21.43 14 20.5 14Z"/><path fill="#3F5FFF" d="m6.25 21.75 2.5-2.5a2.475 2.475 0 1 0-3.5-3.5l-2.5 2.5a2.475 2.475 0 1 0 3.5 3.5ZM25.75 21.75l-2.5-2.5a2.475 2.475 0 1 1 3.5-3.5l2.5 2.5a2.475 2.475 0 1 1-3.5 3.5Z"/></svg>
